symbols/web/horizontal_distribute/materialsymbolsrounded/horizontal_distribute_wght500_20px.svg

<svg xmlns="http://www.w3.org/2000/svg" height="20" width="20"><path d="M2.542 18.458q-.396 0-.698-.302-.302-.302-.302-.698V2.542q0-.396.302-.698.302-.302.698-.302.396 0 .698.302.302.302.302.698v14.916q0 .396-.302.698-.302.302-.698.302ZM10 14.292q-.583 0-1-.417-.417-.417-.417-1v-5.75q0-.583.417-1 .417-.417 1-.417t1 .417q.417.417.417 1v5.75q0 .583-.417 1-.417.417-1 .417Zm7.458 4.166q-.396 0-.698-.302-.302-.302-.302-.698V2.542q0-.396.302-.698.302-.302.698-.302.396 0 .698.302.302.302.302.698v14.916q0 .396-.302.698-.302.302-.698.302Z"/></svg>

<svg xmlns="http://www.w3.org/2000/svg" height="20" width="20"><path d="M2.542 18.458Q2.146 18.458 1.844 18.156Q1.542 17.854 1.542 17.458V2.542Q1.542 2.146 1.844 1.844Q2.146 1.542 2.542 1.542Q2.938 1.542 3.24 1.844Q3.542 2.146 3.542 2.542V17.458Q3.542 17.854 3.24 18.156Q2.938 18.458 2.542 18.458ZM10 14.292Q9.417 14.292 9 13.875Q8.583 13.458 8.583 12.875V7.125Q8.583 6.542 9 6.125Q9.417 5.708 10 5.708Q10.583 5.708 11 6.125Q11.417 6.542 11.417 7.125V12.875Q11.417 13.458 11 13.875Q10.583 14.292 10 14.292ZM17.458 18.458Q17.062 18.458 16.76 18.156Q16.458 17.854 16.458 17.458V2.542Q16.458 2.146 16.76 1.844Q17.062 1.542 17.458 1.542Q17.854 1.542 18.156 1.844Q18.458 2.146 18.458 2.542V17.458Q18.458 17.854 18.156 18.156Q17.854 18.458 17.458 18.458Z"/></svg>
